X: 022146
T: Big Shower
Z: BB
C: Joe Liddy
S: "The Leitrim Fiddler" (Dublin 1981)
L: 1/8
M: 4/4
R: reel
Q: 1/4 = 180
K: Edor
AF |: E2 BE FEBE | FEDF ADFD | E2 BE FEBE | DB,DE FBAF |
E2 BE FEDE | FEBF AF D2 | B2 BA BAFE | DFBA FEAF ||
E2 BE FEBE | FEDF ADFD | E2 BE B,EFE | DB,A,B, DEFD |
E2 BE FEBE | B,EBE AF D2 | B2 (3cBA BAFE | DFBA FE E2 ||
|: efed BABc | dcdf adfd |1 e2 fa bafe | dfba fe e2 |
Befg edBc | dfed BdAF | E2 FA BAFE | DFBA FE E2 :|
[2 e2 ef befe | dBAF E2 FA | B2 ef g2 fd | ecdB ADFD |
E2 FA BAFA | BdAF E4 ||
